icons/cy.svg

<?xml version="1.0" ?>
<svg xmlns="http://www.w3.org/2000/svg" xmlns:ev="http://www.w3.org/2001/xml-events" xmlns:xlink="http://www.w3.org/1999/xlink" baseProfile="full" height="365px" version="1.1" viewBox="-1028.8121694004399 1384.4998894771215 12294.561347760478 7469.335091938122" width="600px">
	<defs/>
	<path d="M 10180.0,8220.0 C 10166.0,8216.0 10141.0,8212.0 10125.0,8211.0 C 10105.0,8210.0 10070.0,8192.0 10023.0,8156.0 C 9957.0,8106.0 9948.0,8102.0 9910.0,8107.0 C 9874.0,8112.0 9868.0,8110.0 9863.0,8092.0 C 9857.0,8066.0 9782.0,8016.0 9753.0,8018.0 C 9741.0,8019.0 9718.0,8015.0 9703.0,8009.0 C 9688.0,8003.0 9642.0,7994.0 9603.0,7990.0 C 9536.0,7983.0 9526.0,7979.0 9476.0,7936.0 C 9436.0,7902.0 9409.0,7887.0 9369.0,7879.0 C 9339.0,7873.0 9278.0,7849.0 9233.0,7827.0 C 9156.0,7788.0 9149.0,7782.0 9135.0,7740.0 C 9121.0,7700.0 9109.0,7688.0 9027.0,7632.0 C 8971.0,7594.0 8925.0,7570.0 8908.0,7570.0 C 8877.0,7570.0 8756.0,7509.0 8719.0,7474.0 C 8696.0,7452.0 8686.0,7450.0 8594.0,7450.0 C 8526.0,7450.0 8486.0,7455.0 8466.0,7465.0 C 8428.0,7485.0 8425.0,7484.0 8411.0,7453.0 C 8404.0,7437.0 8366.0,7382.0 8327.0,7329.0 C 8236.0,7207.0 8172.0,7159.0 8051.0,7121.0 C 7974.0,7097.0 7952.0,7084.0 7902.0,7039.0 C 7863.0,7002.0 7818.0,6974.0 7765.0,6952.0 C 7722.0,6933.0 7653.0,6896.0 7612.0,6868.0 C 7564.0,6836.0 7523.0,6816.0 7496.0,6812.0 C 7474.0,6809.0 7435.0,6796.0 7411.0,6783.0 C 7387.0,6771.0 7359.0,6760.0 7350.0,6760.0 C 7340.0,6760.0 7321.0,6751.0 7308.0,6740.0 C 7294.0,6730.0 7207.0,6699.0 7114.0,6673.0 L 6945.0,6625.0 L 6765.0,6625.0 L 6585.0,6625.0 L 6515.0,6582.0 C 6477.0,6559.0 6439.0,6540.0 6432.0,6540.0 C 6425.0,6540.0 6393.0,6515.0 6361.0,6486.0 C 6319.0,6446.0 6275.0,6417.0 6195.0,6380.0 L 6085.0,6328.0 L 5992.0,6335.0 C 5902.0,6341.0 5896.0,6340.0 5859.0,6315.0 C 5799.0,6276.0 5706.0,6250.0 5621.0,6250.0 C 5561.0,6250.0 5529.0,6243.0 5462.0,6218.0 C 5384.0,6189.0 5374.0,6187.0 5334.0,6198.0 C 5272.0,6215.0 5205.0,6213.0 5190.0,6195.0 C 5181.0,6184.0 5157.0,6180.0 5103.0,6180.0 C 5044.0,6180.0 5020.0,6185.0 4978.0,6206.0 C 4936.0,6227.0 4923.0,6230.0 4903.0,6221.0 C 4869.0,6205.0 4750.0,6208.0 4720.0,6225.0 C 4706.0,6233.0 4668.0,6239.0 4633.0,6240.0 C 4599.0,6240.0 4559.0,6245.0 4545.0,6250.0 C 4492.0,6270.0 4386.0,6281.0 4335.0,6271.0 C 4292.0,6263.0 4273.0,6265.0 4203.0,6287.0 C 4123.0,6311.0 4120.0,6312.0 4065.0,6295.0 C 4003.0,6277.0 3984.0,6279.0 3870.0,6315.0 C 3750.0,6352.0 3730.0,6353.0 3685.0,6319.0 C 3653.0,6295.0 3637.0,6290.0 3587.0,6290.0 C 3512.0,6290.0 3426.0,6316.0 3379.0,6352.0 C 3346.0,6377.0 3334.0,6380.0 3265.0,6380.0 C 3196.0,6380.0 3184.0,6383.0 3143.0,6411.0 C 3119.0,6428.0 3072.0,6452.0 3041.0,6465.0 C 3009.0,6477.0 2959.0,6503.0 2928.0,6523.0 L 2873.0,6558.0 L 2866.0,6482.0 C 2863.0,6441.0 2860.0,6379.0 2860.0,6346.0 C 2860.0,6288.0 2862.0,6283.0 2890.0,6267.0 C 2919.0,6249.0 2920.0,6246.0 2921.0,6172.0 C 2922.0,6130.0 2925.0,6032.0 2929.0,5955.0 C 2934.0,5837.0 2933.0,5806.0 2918.0,5755.0 C 2908.0,5722.0 2895.0,5665.0 2889.0,5628.0 C 2871.0,5512.0 2836.0,5416.0 2789.0,5352.0 C 2755.0,5305.0 2724.0,5279.0 2640.0,5227.0 C 2578.0,5189.0 2519.0,5159.0 2495.0,5155.0 C 2459.0,5150.0 2452.0,5152.0 2425.0,5180.0 C 2409.0,5196.0 2386.0,5210.0 2374.0,5210.0 C 2362.0,5210.0 2339.0,5221.0 2323.0,5234.0 C 2308.0,5247.0 2270.0,5263.0 2240.0,5271.0 C 2210.0,5278.0 2154.0,5301.0 2115.0,5321.0 C 2077.0,5341.0 2027.0,5363.0 2005.0,5370.0 C 1983.0,5377.0 1956.0,5389.0 1945.0,5396.0 C 1934.0,5404.0 1902.0,5410.0 1872.0,5410.0 C 1843.0,5410.0 1810.0,5415.0 1799.0,5421.0 C 1788.0,5426.0 1752.0,5436.0 1718.0,5441.0 C 1666.0,5449.0 1655.0,5448.0 1639.0,5434.0 C 1626.0,5422.0 1610.0,5419.0 1581.0,5423.0 C 1545.0,5427.0 1540.0,5426.0 1532.0,5400.0 C 1523.0,5377.0 1515.0,5372.0 1470.0,5367.0 C 1441.0,5363.0 1406.0,5353.0 1391.0,5343.0 C 1372.0,5331.0 1349.0,5327.0 1303.0,5329.0 L 1241.0,5331.0 L 1219.0,5288.0 C 1207.0,5264.0 1173.0,5219.0 1144.0,5188.0 C 1107.0,5150.0 1090.0,5123.0 1090.0,5105.0 C 1090.0,5075.0 1035.0,4963.0 975.0,4869.0 C 937.0,4810.0 923.0,4798.0 846.0,4756.0 C 795.0,4728.0 754.0,4699.0 748.0,4686.0 C 734.0,4655.0 610.0,4615.0 554.0,4623.0 C 533.0,4627.0 489.0,4632.0 458.0,4636.0 C 404.0,4642.0 399.0,4645.0 345.0,4706.0 C 314.0,4742.0 274.0,4778.0 257.0,4787.0 C 197.0,4818.0 160.0,4854.0 160.0,4881.0 C 160.0,4900.0 150.0,4915.0 122.0,4934.0 C 100.0,4949.0 77.0,4958.0 69.0,4955.0 C 61.0,4952.0 43.0,4932.0 27.0,4911.0 C 1.0,4874.0 0.0,4866.0 0.0,4761.0 C 0.0,4631.0 12.0,4599.0 108.0,4471.0 L 163.0,4396.0 L 168.0,4293.0 C 172.0,4193.0 172.0,4190.0 151.0,4190.0 C 134.0,4190.0 130.0,4184.0 130.0,4156.0 C 130.0,4128.0 136.0,4118.0 160.0,4103.0 C 179.0,4092.0 188.0,4080.0 185.0,4070.0 C 182.0,4062.0 189.0,4042.0 200.0,4025.0 C 228.0,3983.0 226.0,3932.0 195.0,3900.0 L 170.0,3874.0 L 205.0,3825.0 C 223.0,3797.0 250.0,3753.0 264.0,3725.0 C 292.0,3671.0 390.0,3590.0 428.0,3590.0 C 441.0,3590.0 457.0,3574.0 476.0,3543.0 C 499.0,3502.0 504.0,3482.0 508.0,3395.0 C 512.0,3300.0 514.0,3292.0 547.0,3246.0 C 580.0,3200.0 581.0,3195.0 575.0,3140.0 C 569.0,3085.0 570.0,3081.0 592.0,3075.0 C 615.0,3067.0 641.0,3049.0 705.0,2997.0 C 723.0,2982.0 759.0,2962.0 785.0,2954.0 C 810.0,2945.0 854.0,2917.0 883.0,2891.0 C 962.0,2819.0 992.0,2801.0 1021.0,2807.0 C 1037.0,2810.0 1066.0,2802.0 1098.0,2786.0 C 1126.0,2772.0 1164.0,2760.0 1182.0,2760.0 C 1200.0,2760.0 1250.0,2748.0 1292.0,2734.0 C 1359.0,2712.0 1376.0,2701.0 1417.0,2655.0 C 1460.0,2607.0 1471.0,2601.0 1524.0,2591.0 C 1556.0,2585.0 1616.0,2562.0 1657.0,2540.0 C 1698.0,2518.0 1744.0,2500.0 1760.0,2500.0 C 1775.0,2500.0 1813.0,2489.0 1844.0,2475.0 C 1916.0,2443.0 1966.0,2442.0 1975.0,2471.0 C 1982.0,2491.0 1986.0,2492.0 2064.0,2486.0 C 2142.0,2480.0 2147.0,2480.0 2169.0,2504.0 C 2182.0,2518.0 2207.0,2532.0 2224.0,2536.0 C 2241.0,2539.0 2268.0,2551.0 2283.0,2562.0 C 2307.0,2579.0 2317.0,2581.0 2349.0,2572.0 C 2380.0,2565.0 2395.0,2566.0 2425.0,2581.0 C 2459.0,2598.0 2465.0,2598.0 2479.0,2585.0 C 2493.0,2573.0 2504.0,2573.0 2562.0,2586.0 C 2638.0,2603.0 2658.0,2597.0 2738.0,2533.0 C 2787.0,2493.0 2890.0,2345.0 2927.0,2262.0 C 2952.0,2205.0 2953.0,2171.0 2935.0,2083.0 L 2928.0,2050.0 L 3011.0,2055.0 C 3057.0,2057.0 3118.0,2062.0 3146.0,2065.0 C 3189.0,2071.0 3209.0,2067.0 3261.0,2045.0 C 3340.0,2011.0 3390.0,2002.0 3390.0,2021.0 C 3390.0,2029.0 3393.0,2044.0 3396.0,2055.0 C 3399.0,2069.0 3387.0,2093.0 3352.0,2136.0 C 3278.0,2228.0 3274.0,2243.0 3289.0,2369.0 C 3301.0,2464.0 3306.0,2480.0 3335.0,2517.0 C 3385.0,2583.0 3525.0,2685.0 3590.0,2703.0 C 3626.0,2714.0 3657.0,2731.0 3678.0,2753.0 C 3700.0,2776.0 3731.0,2793.0 3771.0,2805.0 C 3827.0,2822.0 3843.0,2822.0 4023.0,2809.0 C 4214.0,2796.0 4335.0,2794.0 4398.0,2805.0 C 4419.0,2809.0 4448.0,2829.0 4481.0,2861.0 C 4530.0,2910.0 4531.0,2910.0 4560.0,2895.0 C 4614.0,2867.0 4728.0,2885.0 4743.0,2925.0 C 4748.0,2936.0 4764.0,2940.0 4800.0,2940.0 C 4844.0,2940.0 4860.0,2946.0 4907.0,2980.0 C 4938.0,3002.0 4975.0,3020.0 4989.0,3020.0 C 5034.0,3021.0 5096.0,3055.0 5119.0,3093.0 C 5146.0,3138.0 5227.0,3170.0 5389.0,3202.0 L 5503.0,3224.0 L 5567.0,3301.0 C 5621.0,3367.0 5640.0,3382.0 5686.0,3399.0 C 5752.0,3424.0 5842.0,3427.0 5860.0,3405.0 C 5867.0,3397.0 5883.0,3390.0 5895.0,3390.0 C 5915.0,3390.0 5922.0,3401.0 5945.0,3469.0 C 5972.0,3551.0 6024.0,3620.0 6068.0,3634.0 C 6091.0,3642.0 6095.0,3671.0 6110.0,3914.0 C 6123.0,4132.0 6134.0,4156.0 6255.0,4228.0 C 6342.0,4279.0 6345.0,4280.0 6422.0,4280.0 C 6466.0,4280.0 6533.0,4285.0 6571.0,4292.0 C 6670.0,4308.0 6766.0,4290.0 6840.0,4241.0 C 6870.0,4221.0 6907.0,4199.0 6922.0,4192.0 C 6938.0,4186.0 6970.0,4162.0 6994.0,4140.0 C 7018.0,4118.0 7047.0,4100.0 7058.0,4100.0 C 7092.0,4100.0 7212.0,4149.0 7237.0,4172.0 C 7253.0,4187.0 7260.0,4205.0 7260.0,4231.0 L 7260.0,4268.0 L 7328.0,4280.0 C 7365.0,4286.0 7418.0,4294.0 7445.0,4297.0 C 7473.0,4300.0 7500.0,4309.0 7506.0,4317.0 C 7516.0,4329.0 7526.0,4329.0 7578.0,4316.0 C 7611.0,4307.0 7659.0,4300.0 7684.0,4300.0 C 7714.0,4300.0 7749.0,4291.0 7781.0,4274.0 C 7818.0,4256.0 7840.0,4251.0 7861.0,4255.0 C 7886.0,4261.0 7897.0,4256.0 7931.0,4225.0 C 7963.0,4196.0 7974.0,4191.0 7985.0,4200.0 C 7996.0,4209.0 8004.0,4208.0 8022.0,4196.0 C 8034.0,4187.0 8048.0,4180.0 8052.0,4180.0 C 8068.0,4180.0 8059.0,4228.0 8040.0,4245.0 C 8025.0,4258.0 8020.0,4276.0 8020.0,4311.0 C 8020.0,4343.0 8012.0,4375.0 7995.0,4406.0 C 7981.0,4432.0 7970.0,4459.0 7970.0,4465.0 C 7970.0,4472.0 7951.0,4493.0 7927.0,4513.0 C 7903.0,4533.0 7869.0,4577.0 7846.0,4618.0 C 7825.0,4656.0 7796.0,4694.0 7783.0,4701.0 C 7733.0,4728.0 7558.0,4922.0 7532.0,4980.0 C 7506.0,5037.0 7464.0,5090.0 7445.0,5090.0 C 7423.0,5090.0 7342.0,5186.0 7325.0,5233.0 C 7313.0,5264.0 7298.0,5285.0 7285.0,5290.0 C 7260.0,5300.0 7250.0,5319.0 7250.0,5361.0 C 7250.0,5377.0 7243.0,5408.0 7234.0,5430.0 C 7219.0,5466.0 7219.0,5484.0 7229.0,5571.0 C 7235.0,5626.0 7240.0,5695.0 7240.0,5726.0 C 7240.0,5802.0 7261.0,5847.0 7327.0,5905.0 C 7378.0,5951.0 7382.0,5958.0 7371.0,5978.0 C 7355.0,6008.0 7366.0,6025.0 7447.0,6100.0 C 7507.0,6155.0 7518.0,6161.0 7547.0,6157.0 C 7569.0,6153.0 7586.0,6157.0 7603.0,6170.0 C 7625.0,6187.0 7629.0,6188.0 7649.0,6174.0 C 7693.0,6143.0 7730.0,6139.0 7762.0,6161.0 C 7778.0,6173.0 7798.0,6179.0 7806.0,6176.0 C 7830.0,6167.0 7901.0,6189.0 7936.0,6215.0 C 7963.0,6236.0 7970.0,6251.0 7986.0,6327.0 C 8003.0,6411.0 8007.0,6417.0 8071.0,6490.0 C 8107.0,6531.0 8189.0,6615.0 8252.0,6675.0 C 8360.0,6778.0 8372.0,6787.0 8456.0,6819.0 C 8505.0,6838.0 8578.0,6875.0 8619.0,6903.0 C 8709.0,6963.0 8831.0,7020.0 8871.0,7020.0 C 8912.0,7020.0 8940.0,7041.0 9021.0,7132.0 C 9123.0,7248.0 9218.0,7327.0 9283.0,7349.0 C 9353.0,7373.0 9384.0,7394.0 9398.0,7425.0 C 9404.0,7439.0 9418.0,7450.0 9428.0,7450.0 C 9441.0,7450.0 9451.0,7465.0 9465.0,7503.0 C 9503.0,7611.0 9581.0,7720.0 9621.0,7720.0 C 9632.0,7720.0 9652.0,7731.0 9665.0,7744.0 C 9678.0,7757.0 9711.0,7773.0 9739.0,7780.0 C 9767.0,7786.0 9814.0,7809.0 9844.0,7830.0 C 9886.0,7859.0 9910.0,7869.0 9952.0,7873.0 C 10044.0,7881.0 10097.0,7906.0 10141.0,7965.0 C 10172.0,8006.0 10182.0,8030.0 10186.0,8071.0 C 10190.0,8103.0 10202.0,8141.0 10217.0,8163.0 C 10253.0,8220.0 10240.0,8239.0 10180.0,8220.0" fill="pink"/>
</svg>

<?xml version="1.0" standalone="no"?>
<!DOCTYPE svg PUBLIC "-//W3C//DTD SVG 20010904//EN"
 "http://www.w3.org/TR/2001/REC-SVG-20010904/DTD/svg10.dtd">
<svg version="1.0" xmlns="http://www.w3.org/2000/svg"
 width="1024.000000pt" height="1024.000000pt" viewBox="0 0 1024.000000 1024.000000"
 preserveAspectRatio="xMidYMid meet">
<metadata>
Created by potrace 1.10, written by Peter Selinger 2001-2011
</metadata>
<g transform="translate(0.000000,1024.000000) scale(0.100000,-0.100000)"
fill="#000000" stroke="none">
<path d="M10180 8220 c-14 -4 -39 -8 -55 -9 -20 -1 -55 -19 -102 -55 -66 -50
-75 -54 -113 -49 -36 5 -42 3 -47 -15 -6 -26 -81 -76 -110 -74 -12 1 -35 -3
-50 -9 -15 -6 -61 -15 -100 -19 -67 -7 -77 -11 -127 -54 -40 -34 -67 -49 -107
-57 -30 -6 -91 -30 -136 -52 -77 -39 -84 -45 -98 -87 -14 -40 -26 -52 -108
-108 -56 -38 -102 -62 -119 -62 -31 0 -152 -61 -189 -96 -23 -22 -33 -24 -125
-24 -68 0 -108 5 -128 15 -38 20 -41 19 -55 -12 -7 -16 -45 -71 -84 -124 -91
-122 -155 -170 -276 -208 -77 -24 -99 -37 -149 -82 -39 -37 -84 -65 -137 -87
-43 -19 -112 -56 -153 -84 -48 -32 -89 -52 -116 -56 -22 -3 -61 -16 -85 -29
-24 -12 -52 -23 -61 -23 -10 0 -29 -9 -42 -20 -14 -10 -101 -41 -194 -67
l-169 -48 -180 0 -180 0 -70 -43 c-38 -23 -76 -42 -83 -42 -7 0 -39 -25 -71
-54 -42 -40 -86 -69 -166 -106 l-110 -52 -93 7 c-90 6 -96 5 -133 -20 -60 -39
-153 -65 -238 -65 -60 0 -92 -7 -159 -32 -78 -29 -88 -31 -128 -20 -62 17
-129 15 -144 -3 -9 -11 -33 -15 -87 -15 -59 0 -83 5 -125 26 -42 21 -55 24
-75 15 -34 -16 -153 -13 -183 4 -14 8 -52 14 -87 15 -34 0 -74 5 -88 10 -53
20 -159 31 -210 21 -43 -8 -62 -6 -132 16 -80 24 -83 25 -138 8 -62 -18 -81
-16 -195 20 -120 37 -140 38 -185 4 -32 -24 -48 -29 -98 -29 -75 0 -161 26
-208 62 -33 25 -45 28 -114 28 -69 0 -81 3 -122 31 -24 17 -71 41 -102 54 -32
12 -82 38 -113 58 l-55 35 -7 -76 c-3 -41 -6 -103 -6 -136 0 -58 2 -63 30 -79
29 -18 30 -21 31 -95 1 -42 4 -140 8 -217 5 -118 4 -149 -11 -200 -10 -33 -23
-90 -29 -127 -18 -116 -53 -212 -100 -276 -34 -47 -65 -73 -149 -125 -62 -38
-121 -68 -145 -72 -36 -5 -43 -3 -70 25 -16 16 -39 30 -51 30 -12 0 -35 11
-51 24 -15 13 -53 29 -83 37 -30 7 -86 30 -125 50 -38 20 -88 42 -110 49 -22
7 -49 19 -60 26 -11 8 -43 14 -73 14 -29 0 -62 5 -73 11 -11 5 -47 15 -81 20
-52 8 -63 7 -79 -7 -13 -12 -29 -15 -58 -11 -36 4 -41 3 -49 -23 -9 -23 -17
-28 -62 -33 -29 -4 -64 -14 -79 -24 -19 -12 -42 -16 -88 -14 l-62 2 -22 -43
c-12 -24 -46 -69 -75 -100 -37 -38 -54 -65 -54 -83 0 -30 -55 -142 -115 -236
-38 -59 -52 -71 -129 -113 -51 -28 -92 -57 -98 -70 -14 -31 -138 -71 -194 -63
-21 4 -65 9 -96 13 -54 6 -59 9 -113 70 -31 36 -71 72 -88 81 -60 31 -97 67
-97 94 0 19 -10 34 -38 53 -22 15 -45 24 -53 21 -8 -3 -26 -23 -42 -44 -26
-37 -27 -45 -27 -150 0 -130 12 -162 108 -290 l55 -75 5 -103 c4 -100 4 -103
-17 -103 -17 0 -21 -6 -21 -34 0 -28 6 -38 30 -53 19 -11 28 -23 25 -33 -3 -8
4 -28 15 -45 28 -42 26 -93 -5 -125 l-25 -26 35 -49 c18 -28 45 -72 59 -100
28 -54 126 -135 164 -135 13 0 29 -16 48 -47 23 -41 28 -61 32 -148 4 -95 6
-103 39 -149 33 -46 34 -51 28 -106 -6 -55 -5 -59 17 -65 23 -8 49 -26 113
-78 18 -15 54 -35 80 -43 25 -9 69 -37 98 -63 79 -72 109 -90 138 -84 16 3 45
-5 77 -21 28 -14 66 -26 84 -26 18 0 68 -12 110 -26 67 -22 84 -33 125 -79 43
-48 54 -54 107 -64 32 -6 92 -29 133 -51 41 -22 87 -40 103 -40 15 0 53 -11
84 -25 72 -32 122 -33 131 -4 7 20 11 21 89 15 78 -6 83 -6 105 18 13 14 38
28 55 32 17 3 44 15 59 26 24 17 34 19 66 10 31 -7 46 -6 76 9 34 17 40 17 54
4 14 -12 25 -12 83 1 76 17 96 11 176 -53 49 -40 152 -188 189 -271 25 -57 26
-91 8 -179 l-7 -33 83 5 c46 2 107 7 135 10 43 6 63 2 115 -20 79 -34 129 -43
129 -24 0 8 3 23 6 34 3 14 -9 38 -44 81 -74 92 -78 107 -63 233 12 95 17 111
46 148 50 66 190 168 255 186 36 11 67 28 88 50 22 23 53 40 93 52 56 17 72
17 252 4 191 -13 312 -15 375 -4 21 4 50 24 83 56 49 49 50 49 79 34 54 -28
168 -10 183 30 5 11 21 15 57 15 44 0 60 6 107 40 31 22 68 40 82 40 45 1 107
35 130 73 27 45 108 77 270 109 l114 22 64 77 c54 66 73 81 119 98 66 25 156
28 174 6 7 -8 23 -15 35 -15 20 0 27 11 50 79 27 82 79 151 123 165 23 8 27
37 42 280 13 218 24 242 145 314 87 51 90 52 167 52 44 0 111 5 149 12 99 16
195 -2 269 -51 30 -20 67 -42 82 -49 16 -6 48 -30 72 -52 24 -22 53 -40 64
-40 34 0 154 49 179 72 16 15 23 33 23 59 l0 37 68 12 c37 6 90 14 117 17 28
3 55 12 61 20 10 12 20 12 72 -1 33 -9 81 -16 106 -16 30 0 65 -9 97 -26 37
-18 59 -23 80 -19 25 6 36 1 70 -30 32 -29 43 -34 54 -25 11 9 19 8 37 -4 12
-9 26 -16 30 -16 16 0 7 48 -12 65 -15 13 -20 31 -20 66 0 32 -8 64 -25 95
-14 26 -25 53 -25 59 0 7 -19 28 -43 48 -24 20 -58 64 -81 105 -21 38 -50 76
-63 83 -50 27 -225 221 -251 279 -26 57 -68 110 -87 110 -22 0 -103 96 -120
143 -12 31 -27 52 -40 57 -25 10 -35 29 -35 71 0 16 -7 47 -16 69 -15 36 -15
54 -5 141 6 55 11 124 11 155 0 76 21 121 87 179 51 46 55 53 44 73 -16 30 -5
47 76 122 60 55 71 61 100 57 22 -4 39 0 56 13 22 17 26 18 46 4 44 -31 81
-35 113 -13 16 12 36 18 44 15 24 -9 95 13 130 39 27 21 34 36 50 112 17 84
21 90 85 163 36 41 118 125 181 185 108 103 120 112 204 144 49 19 122 56 163
84 90 60 212 117 252 117 41 0 69 21 150 112 102 116 197 195 262 217 70 24
101 45 115 76 6 14 20 25 30 25 13 0 23 15 37 53 38 108 116 217 156 217 11 0
31 11 44 24 13 13 46 29 74 36 28 6 75 29 105 50 42 29 66 39 108 43 92 8 145
33 189 92 31 41 41 65 45 106 4 32 16 70 31 92 36 57 23 76 -37 57z"/>
</g>
</svg>
